resources/svg/major-insert-dynamic-source.svg

<svg xmlns="http://www.w3.org/2000/svg" viewBox="0 0 20 20" fill="currentColor"><path d="M9 7C13.4183 7 17 5.65685 17 4C17 2.34315 13.4183 1 9 1C4.58172 1 1 2.34315 1 4C1 5.65685 4.58172 7 9 7ZM11.2238 8.88258C10.3267 9.72016 9.65013 10.7908 9.29046 11.9981C9.19406 11.9993 9.09723 12 9 12C4.58172 12 1 10.6569 1 9C1 8.45357 1.38958 7.94126 2.07026 7.5C3.4535 8.3967 6.03887 9 9 9C9.77165 9 10.5178 8.95903 11.2238 8.88258ZM9 14C9 15.0695 9.23987 16.083 9.66873 16.9897C9.44824 16.9965 9.22521 17 9 17C4.58172 17 1 15.6569 1 14C1 13.4536 1.38958 12.9413 2.07026 12.5C3.4535 13.3967 6.03887 14 9 14ZM16 18C15.4477 18 15 17.5523 15 17V15H13C12.4477 15 12 14.5523 12 14C12 13.4477 12.4477 13 13 13H15V11C15 10.4477 15.4477 10 16 10C16.5523 10 17 10.4477 17 11V13L19 13C19.5523 13 20 13.4477 20 14C20 14.5523 19.5523 15 19 15H17V17C17 17.5523 16.5523 18 16 18Z" fill="#5C5F62"/></svg>

<svg xmlns="http://www.w3.org/2000/svg" viewBox="0 0 20 20" fill="currentColor"><path d="M9 7c4.418 0 8-1.343 8-3s-3.582-3-8-3-8 1.343-8 3 3.582 3 8 3Zm2.224 1.883a7 7 0 0 0-1.934 3.115l-.29.002c-4.418 0-8-1.343-8-3 0-.546.39-1.059 1.07-1.5 1.384.897 3.969 1.5 6.93 1.5.772 0 1.518-.041 2.224-.117Zm-2.224 5.117c0 1.07.24 2.083.669 2.99-.22.007-.444.01-.669.01-4.418 0-8-1.343-8-3 0-.546.39-1.059 1.07-1.5 1.384.897 3.969 1.5 6.93 1.5Zm7 4a1 1 0 0 1-1-1v-2h-2a1 1 0 1 1 0-2h2v-2a1 1 0 1 1 2 0v2h2a1 1 0 1 1 0 2h-2v2a1 1 0 0 1-1 1Z"/></svg>
